X: 2172
T: Sucky bids me.   a Reel.
%R: reel
B: Niel Gow & Sons "Complete Repository" v.2 p.17 #2
Z: 2021 John Chambers <jc:trillian.mit.edu>
M: C
L: 1/8
K: G
% - - - - - - - - - -
V: 1 staves=2
|:\
G2DE .G2.e2 | dBGB .A(FTE).D | TG2DE .G2(.e2 | d)BcA G2G2 :| d2Bc d2g2 | fafd ege^c |
d2B=c d2g2 | (fg)e^c d3e || .d(gf).e dcBG | B2BG AFTE>D | G2DE .G2.e2 | dBcA G4 |]
% - - - - - - - - - -
% Voice 2 preserves the staff layout in the book.
V: 2 clef=bass middle=d
|:\
g2G2 B2c2 | B2G2 d2d2 | g2G2 B2c2 | d2D2 G2G2 :| g2g2 b2g2 | d'2d2 a2A2 |
G2g2 f2e2 | d2A2 d2D2 || G2g2 g2g2 | g2g2 d2d2 | g2G2 B2c2 | d2d2 G2G2 |]


